**kern	**kern	**dynam
*part1	*part1	*part1
*staff2	*staff1	*
*I"Piano	*	*
*clefF4	*clefG2	*
*k[f#c#g#d#]	*k[f#c#g#d#]	*
=1	=1	=1
*	*^	*
(8F#L]	(4ee	8a#XL	.
8BB	.	8gn	.
[8BBBJ)	8ddn))	8f#J	.
*	*v	*v	*
=	=	=
(8BBBL]	(8ddnL 8ffn	.
8GG#X	8b 8dd	.
[8DnJ)	8g#XJ 8b	.
=	=	=
*	*^	*
(8DL]	8.aL	4fn	.
8BB	.	.	.
.	16g#K	.	.
[8BJ)	8g#J)	8e	.
*	*v	*v	*
=	=	=
(8BL]	(8f##XL 8a#X	.
8EE	8g# 8b	.
8GG#J)	[8bJ [8ffn	.
=	=	=
(8AAL	8bL] 8ff]	.
8E	8ccn 8ee	.
8AJ)	[8aJ) [8cc	.
=	=	=
*	*^	*
(4FFn	(8ccL]	4a]	<
.	8ee	.	.
8Fn	8ddnJ	[8a-X	.
=	=	=	=
4Gn	8ccnL	8a-L]	.
.	8b	8gnJ	.
*	*v	*v	*
8GGGn)	([8ffnJ) 8aa-X	[
=	=	=
*-	*-	*-
!!!system-decoration: {(s1,s2)}
